src/Resource_Files/fluent/case-change.svg

<svg clip-rule="evenodd" fill-rule="evenodd" stroke-linejoin="round" stroke-miterlimit="2" viewBox="0 0 16 16" xmlns="http://www.w3.org/2000/svg"><g fill="#1abc9c" fill-rule="nonzero"><path d="m1.015 13.503 3.437-10.362c.075-.243.241-.366.501-.366.252 0 .422.117.512.352.001.003.002.007.004.01l3.411 10.378c.003.011.006.023.008.034.011.03.019.066.019.11 0 .137-.057.258-.182.356-.103.08-.223.121-.361.121-.232 0-.39-.112-.467-.346l-.758-2.274h-4.402l-.743 2.273c-.075.227-.238.347-.499.347-.122 0-.23-.033-.325-.098-.12-.081-.186-.201-.186-.364 0-.072.013-.129.031-.171zm7.87.04c-.006-.023-.016-.041-.027-.054-.012-.014-.023-.024-.031-.031.018.016.041.043.058.085zm-5.825-3.01h3.756l-1.864-5.689z"/><path d="m13.993 9.866v-.189c0-.256-.037-.511-.11-.767-.072-.25-.181-.475-.33-.676-.144-.195-.333-.353-.565-.475-.236-.123-.524-.181-.864-.181-.225 0-.424.017-.595.054-.17.036-.316.079-.438.129-.13.053-.239.099-.328.138-.13.057-.228.079-.289.079-.159 0-.29-.067-.389-.206-.089-.124-.121-.233-.121-.316 0-.122.072-.273.278-.404.13-.083.298-.159.505-.225.194-.062.413-.114.657-.155.245-.042.496-.063.752-.063.525 0 .967.088 1.326.259.367.174.664.409.891.702.224.29.386.62.484.991.094.359.142.731.142 1.116v3.968c0 .143-.048.259-.135.348-.087.091-.205.143-.36.143-.148 0-.267-.048-.36-.134-.098-.092-.151-.21-.151-.357v-.257c-.199.162-.418.315-.659.458-.424.251-.922.379-1.495.379-.33 0-.639-.043-.928-.127-.3-.088-.561-.223-.785-.404-.228-.185-.405-.414-.531-.688-.123-.268-.187-.588-.187-.96 0-.449.108-.815.312-1.101.201-.282.481-.507.843-.673.341-.157.752-.265 1.233-.323.463-.055.974-.083 1.534-.083zm0 .969h-.647c-.406 0-.795.014-1.164.044-.356.028-.674.088-.954.181-.257.086-.462.207-.613.369-.139.15-.201.357-.201.617 0 .417.117.725.375.913.276.201.622.298 1.034.298.269 0 .533-.05.792-.149.267-.101.506-.227.719-.379.205-.147.371-.307.495-.481.104-.146.164-.275.164-.395z"/></g></svg>

<?xml version="1.0" encoding="UTF-8" standalone="no"?>
<!DOCTYPE svg PUBLIC "-//W3C//DTD SVG 1.1//EN" "http://www.w3.org/Graphics/SVG/1.1/DTD/svg11.dtd">
<svg width="100%" height="100%" viewBox="0 0 16 16" version="1.1" xmlns="http://www.w3.org/2000/svg" xmlns:xlink="http://www.w3.org/1999/xlink" xml:space="preserve" xmlns:serif="http://www.serif.com/" style="fill-rule:evenodd;clip-rule:evenodd;stroke-linejoin:round;stroke-miterlimit:2;">
    <path d="M1.015,13.503L4.452,3.141C4.527,2.898 4.693,2.775 4.953,2.775C5.205,2.775 5.375,2.892 5.465,3.127C5.466,3.13 5.467,3.134 5.469,3.137L8.88,13.515C8.883,13.526 8.886,13.538 8.888,13.549C8.899,13.579 8.907,13.615 8.907,13.659C8.907,13.796 8.85,13.917 8.725,14.015C8.622,14.095 8.502,14.136 8.364,14.136C8.132,14.136 7.974,14.024 7.897,13.79L7.139,11.516L2.737,11.516L1.994,13.789C1.919,14.016 1.756,14.136 1.495,14.136C1.373,14.136 1.265,14.103 1.17,14.038C1.05,13.957 0.984,13.837 0.984,13.674C0.984,13.602 0.997,13.545 1.015,13.503ZM8.885,13.543C8.879,13.52 8.869,13.502 8.858,13.489C8.846,13.475 8.835,13.465 8.827,13.458C8.845,13.474 8.868,13.501 8.885,13.543ZM3.06,10.533L6.816,10.533L4.952,4.844L3.06,10.533Z" style="fill:rgb(26,188,156);fill-rule:nonzero;"/>
    <path d="M13.993,9.866L13.993,9.677C13.993,9.421 13.956,9.166 13.883,8.91C13.811,8.66 13.702,8.435 13.553,8.234C13.409,8.039 13.22,7.881 12.988,7.759C12.752,7.636 12.464,7.578 12.124,7.578C11.899,7.578 11.7,7.595 11.529,7.632C11.359,7.668 11.213,7.711 11.091,7.761C10.961,7.814 10.852,7.86 10.763,7.899C10.633,7.956 10.535,7.978 10.474,7.978C10.315,7.978 10.184,7.911 10.085,7.772C9.996,7.648 9.964,7.539 9.964,7.456C9.964,7.334 10.036,7.183 10.242,7.052C10.372,6.969 10.54,6.893 10.747,6.827C10.941,6.765 11.16,6.713 11.404,6.672C11.649,6.63 11.9,6.609 12.156,6.609C12.681,6.609 13.123,6.697 13.482,6.868C13.849,7.042 14.146,7.277 14.373,7.57C14.597,7.86 14.759,8.19 14.857,8.561C14.951,8.92 14.999,9.292 14.999,9.677L14.999,13.645C14.999,13.788 14.951,13.904 14.864,13.993C14.777,14.084 14.659,14.136 14.504,14.136C14.356,14.136 14.237,14.088 14.144,14.002C14.046,13.91 13.993,13.792 13.993,13.645L13.993,13.388C13.794,13.55 13.575,13.703 13.334,13.846C12.91,14.097 12.412,14.225 11.839,14.225C11.509,14.225 11.2,14.182 10.911,14.098C10.611,14.01 10.35,13.875 10.126,13.694C9.898,13.509 9.721,13.28 9.595,13.006C9.472,12.738 9.408,12.418 9.408,12.046C9.408,11.597 9.516,11.231 9.72,10.945C9.921,10.663 10.201,10.438 10.563,10.272C10.904,10.115 11.315,10.007 11.796,9.949C12.259,9.894 12.77,9.866 13.33,9.866L13.993,9.866ZM13.993,10.835L13.346,10.835C12.94,10.835 12.551,10.849 12.182,10.879C11.826,10.907 11.508,10.967 11.228,11.06C10.971,11.146 10.766,11.267 10.615,11.429C10.476,11.579 10.414,11.786 10.414,12.046C10.414,12.463 10.531,12.771 10.789,12.959C11.065,13.16 11.411,13.257 11.823,13.257C12.092,13.257 12.356,13.207 12.615,13.108C12.882,13.007 13.121,12.881 13.334,12.729C13.539,12.582 13.705,12.422 13.829,12.248C13.933,12.102 13.993,11.973 13.993,11.853L13.993,10.835Z" style="fill:rgb(26,188,156);fill-rule:nonzero;"/>
</svg>
